X: 69
T: Philip O'Neill
C: anon.
O: Ireland
B: Francis O'Neill: "The Dance Music of Ireland" (1907) no. 69
R: Double jig
Z: Transcribed by Frank Nordberg - http://www.musicaviva.com
F: http://www.musicaviva.com/abc/tunes/ireland/oneill-1001/oneill-1001-006
9.abc
M: 6/8
L: 1/8
K: G
DBB B2d|cAA A2c|BGG GFG|ABG FED|DBB Bcd|cAA ABc|dGG DGG|BGG G3:|
|:Bcd def|gfe fdB|ded dBG|GAG FED|Bcd def|gfe fdB|dGG DGG|BGG G3:|
W:
W:
W: From Musica Viva - http://www.musicaviva.com
W: the Internet center for free sheet music downloads.


